X:1
T:Over the Hills and Far Away
Q:1/4=120
L:1/4
M:C|
H:http://trillian.mit.edu/~jc/music/abc/mirror/BruceOlson/BM3.ABC
K:D dorian
G|ce/d/ c/d/ e/d/|cA2G|ce/d/ c/d/ e/c/|fd2G|
ce/d/ c/d/e/d/|cAf3/2A/|AG/F/Ge|fd2||e/d/|]
g3/2f/ed|cA2e/f/|g3/2f/ed/c/|fd2e/f/|
g3/2f/ed|cAf3/2A/|AG/F/Ge|fd2|]
</abc>
